src/shared/icons/icons/iota.svg

<?xml version="1.0" encoding="UTF-8"?>
<svg width="1024px" height="1024px" viewBox="0 0 1024 1024" version="1.1" xmlns="http://www.w3.org/2000/svg" xmlns:xlink="http://www.w3.org/1999/xlink">
    <!-- Generator: Sketch 48.1 (47250) - http://www.bohemiancoding.com/sketch -->
    <title>Artboard</title>
    <desc>Created with Sketch.</desc>
    <defs></defs>
    <g id="Page-1" stroke="none" stroke-width="1" fill="none" fill-rule="evenodd">
        <g id="Artboard" fill="#000000" fill-rule="nonzero">
            <path d="M54.8571429,572.952381 C24.5603794,572.952381 0,548.392002 0,518.095238 C0,487.798475 24.5603794,463.238095 54.8571429,463.238095 C85.1539063,463.238095 109.714286,487.798475 109.714286,518.095238 C109.714286,548.392002 85.1539063,572.952381 54.8571429,572.952381 Z M131.047619,362.666667 C105.800316,362.666667 85.3333333,342.199684 85.3333333,316.952381 C85.3333333,291.705078 105.800316,271.238095 131.047619,271.238095 C156.294922,271.238095 176.761905,291.705078 176.761905,316.952381 C176.761905,342.199684 156.294922,362.666667 131.047619,362.666667 Z M234.666667,198.095238 C212.785671,198.095238 195.047619,180.357186 195.047619,158.47619 C195.047619,136.595195 212.785671,118.857143 234.666667,118.857143 C256.547662,118.857143 274.285714,136.595195 274.285714,158.47619 C274.285714,180.357186 256.547662,198.095238 234.666667,198.095238 Z M758.857143,109.714286 C728.560379,109.714286 704,85.1539063 704,54.8571429 C704,24.5603794 728.560379,0 758.857143,0 C789.153906,0 813.714286,24.5603794 813.714286,54.8571429 C813.714286,85.1539063 789.153906,109.714286 758.857143,109.714286 Z M896,265.142857 C870.752697,265.142857 850.285714,244.675874 850.285714,219.428571 C850.285714,194.181269 870.752697,173.714286 896,173.714286 C921.247303,173.714286 941.714286,194.181269 941.714286,219.428571 C941.714286,244.675874 921.247303,265.142857 896,265.142857 Z M984.380952,429.714286 C962.499957,429.714286 944.761905,411.976234 944.761905,390.095238 C944.761905,368.214242 962.499957,350.47619 984.380952,350.47619 C1006.26195,350.47619 1024,368.214242 1024,390.095238 C1024,411.976234 1006.26195,429.714286 984.380952,429.714286 Z M789.333333,996.571429 C759.03657,996.571429 734.47619,972.011049 734.47619,941.714286 C734.47619,911.417522 759.03657,886.857143 789.333333,886.857143 C819.630097,886.857143 844.190476,911.417522 844.190476,941.714286 C844.190476,972.011049 819.630097,996.571429 789.333333,996.571429 Z M579.047619,1024 C553.800316,1024 533.333333,1003.53302 533.333333,978.285714 C533.333333,953.038411 553.800316,932.571429 579.047619,932.571429 C604.294922,932.571429 624.761905,953.038411 624.761905,978.285714 C624.761905,1003.53302 604.294922,1024 579.047619,1024 Z M390.095238,1005.71429 C368.214242,1005.71429 350.47619,987.976234 350.47619,966.095238 C350.47619,944.214242 368.214242,926.47619 390.095238,926.47619 C411.976234,926.47619 429.714286,944.214242 429.714286,966.095238 C429.714286,987.976234 411.976234,1005.71429 390.095238,1005.71429 Z M179.809524,475.428571 C154.562221,475.428571 134.095238,454.961589 134.095238,429.714286 C134.095238,404.466983 154.562221,384 179.809524,384 C205.056827,384 225.52381,404.466983 225.52381,429.714286 C225.52381,454.961589 205.056827,475.428571 179.809524,475.428571 Z M252.952381,307.809524 C231.071385,307.809524 213.333333,290.071472 213.333333,268.190476 C213.333333,246.30948 231.071385,228.571429 252.952381,228.571429 C274.833377,228.571429 292.571429,246.30948 292.571429,268.190476 C292.571429,290.071472 274.833377,307.809524 252.952381,307.809524 Z M344.380952,173.714286 C325.866264,173.714286 310.857143,158.705165 310.857143,140.190476 C310.857143,121.675787 325.866264,106.666667 344.380952,106.666667 C362.895641,106.666667 377.904762,121.675787 377.904762,140.190476 C377.904762,158.705165 362.895641,173.714286 344.380952,173.714286 Z M774.095238,249.904762 C748.847935,249.904762 728.380952,229.437779 728.380952,204.190476 C728.380952,178.943173 748.847935,158.47619 774.095238,158.47619 C799.342541,158.47619 819.809524,178.943173 819.809524,204.190476 C819.809524,229.437779 799.342541,249.904762 774.095238,249.904762 Z M877.714286,390.095238 C855.83329,390.095238 838.095238,372.357186 838.095238,350.47619 C838.095238,328.595195 855.83329,310.857143 877.714286,310.857143 C899.595282,310.857143 917.333333,328.595195 917.333333,350.47619 C917.333333,372.357186 899.595282,390.095238 877.714286,390.095238 Z M941.714286,527.238095 C923.199597,527.238095 908.190476,512.228974 908.190476,493.714286 C908.190476,475.199597 923.199597,460.190476 941.714286,460.190476 C960.228974,460.190476 975.238095,475.199597 975.238095,493.714286 C975.238095,512.228974 960.228974,527.238095 941.714286,527.238095 Z M652.190476,923.428571 C626.943173,923.428571 606.47619,902.961589 606.47619,877.714286 C606.47619,852.466983 626.943173,832 652.190476,832 C677.437779,832 697.904762,852.466983 697.904762,877.714286 C697.904762,902.961589 677.437779,923.428571 652.190476,923.428571 Z M475.428571,938.666667 C453.547576,938.666667 435.809524,920.928615 435.809524,899.047619 C435.809524,877.166623 453.547576,859.428571 475.428571,859.428571 C497.309567,859.428571 515.047619,877.166623 515.047619,899.047619 C515.047619,920.928615 497.309567,938.666667 475.428571,938.666667 Z M320,914.285714 C301.485311,914.285714 286.47619,899.276594 286.47619,880.761905 C286.47619,862.247216 301.485311,847.238095 320,847.238095 C338.514689,847.238095 353.52381,862.247216 353.52381,880.761905 C353.52381,899.276594 338.514689,914.285714 320,914.285714 Z M301.714286,420.571429 C279.83329,420.571429 262.095238,402.833377 262.095238,380.952381 C262.095238,359.071385 279.83329,341.333333 301.714286,341.333333 C323.595282,341.333333 341.333333,359.071385 341.333333,380.952381 C341.333333,402.833377 323.595282,420.571429 301.714286,420.571429 Z M362.666667,283.428571 C344.151978,283.428571 329.142857,268.419451 329.142857,249.904762 C329.142857,231.390073 344.151978,216.380952 362.666667,216.380952 C381.181355,216.380952 396.190476,231.390073 396.190476,249.904762 C396.190476,268.419451 381.181355,283.428571 362.666667,283.428571 Z M438.857143,176.761905 C422.025608,176.761905 408.380952,163.11725 408.380952,146.285714 C408.380952,129.454179 422.025608,115.809524 438.857143,115.809524 C455.688678,115.809524 469.333333,129.454179 469.333333,146.285714 C469.333333,163.11725 455.688678,176.761905 438.857143,176.761905 Z M755.809524,374.857143 C733.928528,374.857143 716.190476,357.119091 716.190476,335.238095 C716.190476,313.357099 733.928528,295.619048 755.809524,295.619048 C777.69052,295.619048 795.428571,313.357099 795.428571,335.238095 C795.428571,357.119091 777.69052,374.857143 755.809524,374.857143 Z M838.095238,487.619048 C819.580549,487.619048 804.571429,472.609927 804.571429,454.095238 C804.571429,435.580549 819.580549,420.571429 838.095238,420.571429 C856.609927,420.571429 871.619048,435.580549 871.619048,454.095238 C871.619048,472.609927 856.609927,487.619048 838.095238,487.619048 Z M889.904762,603.428571 C873.073227,603.428571 859.428571,589.783916 859.428571,572.952381 C859.428571,556.120846 873.073227,542.47619 889.904762,542.47619 C906.736297,542.47619 920.380952,556.120846 920.380952,572.952381 C920.380952,589.783916 906.736297,603.428571 889.904762,603.428571 Z M548.571429,838.095238 C526.690433,838.095238 508.952381,820.357186 508.952381,798.47619 C508.952381,776.595195 526.690433,758.857143 548.571429,758.857143 C570.452424,758.857143 588.190476,776.595195 588.190476,798.47619 C588.190476,820.357186 570.452424,838.095238 548.571429,838.095238 Z M405.333333,844.190476 C386.818645,844.190476 371.809524,829.181355 371.809524,810.666667 C371.809524,792.151978 386.818645,777.142857 405.333333,777.142857 C423.848022,777.142857 438.857143,792.151978 438.857143,810.666667 C438.857143,829.181355 423.848022,844.190476 405.333333,844.190476 Z M277.333333,825.904762 C260.501798,825.904762 246.857143,812.260107 246.857143,795.428571 C246.857143,778.597036 260.501798,764.952381 277.333333,764.952381 C294.164869,764.952381 307.809524,778.597036 307.809524,795.428571 C307.809524,812.260107 294.164869,825.904762 277.333333,825.904762 Z M411.428571,396.190476 C392.913883,396.190476 377.904762,381.181355 377.904762,362.666667 C377.904762,344.151978 392.913883,329.142857 411.428571,329.142857 C429.94326,329.142857 444.952381,344.151978 444.952381,362.666667 C444.952381,381.181355 429.94326,396.190476 411.428571,396.190476 Z M457.142857,283.428571 C440.311322,283.428571 426.666667,269.783916 426.666667,252.952381 C426.666667,236.120846 440.311322,222.47619 457.142857,222.47619 C473.974392,222.47619 487.619048,236.120846 487.619048,252.952381 C487.619048,269.783916 473.974392,283.428571 457.142857,283.428571 Z M515.047619,192 C501.582391,192 490.666667,181.084276 490.666667,167.619048 C490.666667,154.153819 501.582391,143.238095 515.047619,143.238095 C528.512847,143.238095 539.428571,154.153819 539.428571,167.619048 C539.428571,181.084276 528.512847,192 515.047619,192 Z M716.190476,472.380952 C697.675787,472.380952 682.666667,457.371832 682.666667,438.857143 C682.666667,420.342454 697.675787,405.333333 716.190476,405.333333 C734.705165,405.333333 749.714286,420.342454 749.714286,438.857143 C749.714286,457.371832 734.705165,472.380952 716.190476,472.380952 Z M786.285714,563.809524 C769.454179,563.809524 755.809524,550.164869 755.809524,533.333333 C755.809524,516.501798 769.454179,502.857143 786.285714,502.857143 C803.11725,502.857143 816.761905,516.501798 816.761905,533.333333 C816.761905,550.164869 803.11725,563.809524 786.285714,563.809524 Z M832,652.190476 C818.534772,652.190476 807.619048,641.274752 807.619048,627.809524 C807.619048,614.344296 818.534772,603.428571 832,603.428571 C845.465228,603.428571 856.380952,614.344296 856.380952,627.809524 C856.380952,641.274752 845.465228,652.190476 832,652.190476 Z M478.47619,746.666667 C459.961502,746.666667 444.952381,731.657546 444.952381,713.142857 C444.952381,694.628168 459.961502,679.619048 478.47619,679.619048 C496.990879,679.619048 512,694.628168 512,713.142857 C512,731.657546 496.990879,746.666667 478.47619,746.666667 Z M362.666667,758.857143 C345.835131,758.857143 332.190476,745.212488 332.190476,728.380952 C332.190476,711.549417 345.835131,697.904762 362.666667,697.904762 C379.498202,697.904762 393.142857,711.549417 393.142857,728.380952 C393.142857,745.212488 379.498202,758.857143 362.666667,758.857143 Z M256,743.619048 C242.534772,743.619048 231.619048,732.703323 231.619048,719.238095 C231.619048,705.772867 242.534772,694.857143 256,694.857143 C269.465228,694.857143 280.380952,705.772867 280.380952,719.238095 C280.380952,732.703323 269.465228,743.619048 256,743.619048 Z M505.904762,399.238095 C489.073227,399.238095 475.428571,385.59344 475.428571,368.761905 C475.428571,351.93037 489.073227,338.285714 505.904762,338.285714 C522.736297,338.285714 536.380952,351.93037 536.380952,368.761905 C536.380952,385.59344 522.736297,399.238095 505.904762,399.238095 Z M533.333333,298.666667 C519.868105,298.666667 508.952381,287.750942 508.952381,274.285714 C508.952381,260.820486 519.868105,249.904762 533.333333,249.904762 C546.798562,249.904762 557.714286,260.820486 557.714286,274.285714 C557.714286,287.750942 546.798562,298.666667 533.333333,298.666667 Z M576,225.52381 C562.534772,225.52381 551.619048,214.608085 551.619048,201.142857 C551.619048,187.677629 562.534772,176.761905 576,176.761905 C589.465228,176.761905 600.380952,187.677629 600.380952,201.142857 C600.380952,214.608085 589.465228,225.52381 576,225.52381 Z M664.380952,548.571429 C647.549417,548.571429 633.904762,534.926773 633.904762,518.095238 C633.904762,501.263703 647.549417,487.619048 664.380952,487.619048 C681.212488,487.619048 694.857143,501.263703 694.857143,518.095238 C694.857143,534.926773 681.212488,548.571429 664.380952,548.571429 Z M731.428571,612.571429 C717.963343,612.571429 707.047619,601.655704 707.047619,588.190476 C707.047619,574.725248 717.963343,563.809524 731.428571,563.809524 C744.8938,563.809524 755.809524,574.725248 755.809524,588.190476 C755.809524,601.655704 744.8938,612.571429 731.428571,612.571429 Z M774.095238,688.761905 C760.63001,688.761905 749.714286,677.846181 749.714286,664.380952 C749.714286,650.915724 760.63001,640 774.095238,640 C787.560466,640 798.47619,650.915724 798.47619,664.380952 C798.47619,677.846181 787.560466,688.761905 774.095238,688.761905 Z M435.809524,658.285714 C418.977989,658.285714 405.333333,644.641059 405.333333,627.809524 C405.333333,610.977989 418.977989,597.333333 435.809524,597.333333 C452.641059,597.333333 466.285714,610.977989 466.285714,627.809524 C466.285714,644.641059 452.641059,658.285714 435.809524,658.285714 Z M341.333333,673.52381 C327.868105,673.52381 316.952381,662.608085 316.952381,649.142857 C316.952381,635.677629 327.868105,624.761905 341.333333,624.761905 C354.798562,624.761905 365.714286,635.677629 365.714286,649.142857 C365.714286,662.608085 354.798562,673.52381 341.333333,673.52381 Z M252.952381,673.52381 C239.487153,673.52381 228.571429,662.608085 228.571429,649.142857 C228.571429,635.677629 239.487153,624.761905 252.952381,624.761905 C266.417609,624.761905 277.333333,635.677629 277.333333,649.142857 C277.333333,662.608085 266.417609,673.52381 252.952381,673.52381 Z M582.095238,414.47619 C568.63001,414.47619 557.714286,403.560466 557.714286,390.095238 C557.714286,376.63001 568.63001,365.714286 582.095238,365.714286 C595.560466,365.714286 606.47619,376.63001 606.47619,390.095238 C606.47619,403.560466 595.560466,414.47619 582.095238,414.47619 Z M594.285714,332.190476 C580.820486,332.190476 569.904762,321.274752 569.904762,307.809524 C569.904762,294.344296 580.820486,283.428571 594.285714,283.428571 C607.750942,283.428571 618.666667,294.344296 618.666667,307.809524 C618.666667,321.274752 607.750942,332.190476 594.285714,332.190476 Z M618.666667,256 C608.567746,256 600.380952,247.813207 600.380952,237.714286 C600.380952,227.615365 608.567746,219.428571 618.666667,219.428571 C628.765588,219.428571 636.952381,227.615365 636.952381,237.714286 C636.952381,247.813207 628.765588,256 618.666667,256 Z M606.47619,597.333333 C593.010962,597.333333 582.095238,586.417609 582.095238,572.952381 C582.095238,559.487153 593.010962,548.571429 606.47619,548.571429 C619.941419,548.571429 630.857143,559.487153 630.857143,572.952381 C630.857143,586.417609 619.941419,597.333333 606.47619,597.333333 Z M670.47619,649.142857 C657.010962,649.142857 646.095238,638.227133 646.095238,624.761905 C646.095238,611.296677 657.010962,600.380952 670.47619,600.380952 C683.941419,600.380952 694.857143,611.296677 694.857143,624.761905 C694.857143,638.227133 683.941419,649.142857 670.47619,649.142857 Z M722.285714,700.952381 C712.186793,700.952381 704,692.765588 704,682.666667 C704,672.567746 712.186793,664.380952 722.285714,664.380952 C732.384635,664.380952 740.571429,672.567746 740.571429,682.666667 C740.571429,692.765588 732.384635,700.952381 722.285714,700.952381 Z M414.47619,576 C401.010962,576 390.095238,565.084276 390.095238,551.619048 C390.095238,538.153819 401.010962,527.238095 414.47619,527.238095 C427.941419,527.238095 438.857143,538.153819 438.857143,551.619048 C438.857143,565.084276 427.941419,576 414.47619,576 Z M338.285714,606.47619 C324.820486,606.47619 313.904762,595.560466 313.904762,582.095238 C313.904762,568.63001 324.820486,557.714286 338.285714,557.714286 C351.750942,557.714286 362.666667,568.63001 362.666667,582.095238 C362.666667,595.560466 351.750942,606.47619 338.285714,606.47619 Z M265.142857,615.619048 C255.043936,615.619048 246.857143,607.432254 246.857143,597.333333 C246.857143,587.234412 255.043936,579.047619 265.142857,579.047619 C275.241778,579.047619 283.428571,587.234412 283.428571,597.333333 C283.428571,607.432254 275.241778,615.619048 265.142857,615.619048 Z" id="Combined-Shape"></path>
        </g>
    </g>
</svg>

<svg width="1024" height="1024" viewBox="0 0 1024 1024" xmlns="http://www.w3.org/2000/svg"><title>Artboard</title><desc>Created with Sketch.</desc><path d="M54.857 572.952c-30.297 0-54.857-24.56-54.857-54.857s24.56-54.857 54.857-54.857 54.857 24.56 54.857 54.857-24.56 54.857-54.857 54.857zm76.19-210.286c-25.247 0-45.714-20.467-45.714-45.714s20.467-45.714 45.714-45.714 45.714 20.467 45.714 45.714-20.467 45.714-45.714 45.714zm103.619-164.571c-21.881 0-39.619-17.738-39.619-39.619s17.738-39.619 39.619-39.619 39.619 17.738 39.619 39.619-17.738 39.619-39.619 39.619zm524.19-88.381c-30.297 0-54.857-24.56-54.857-54.857s24.56-54.857 54.857-54.857 54.857 24.56 54.857 54.857-24.56 54.857-54.857 54.857zm137.143 155.429c-25.247 0-45.714-20.467-45.714-45.714s20.467-45.714 45.714-45.714 45.714 20.467 45.714 45.714-20.467 45.714-45.714 45.714zm88.381 164.571c-21.881 0-39.619-17.738-39.619-39.619s17.738-39.619 39.619-39.619 39.619 17.738 39.619 39.619-17.738 39.619-39.619 39.619zm-195.048 566.857c-30.297 0-54.857-24.56-54.857-54.857s24.56-54.857 54.857-54.857 54.857 24.56 54.857 54.857-24.56 54.857-54.857 54.857zm-210.286 27.429c-25.247 0-45.714-20.467-45.714-45.714s20.467-45.714 45.714-45.714 45.714 20.467 45.714 45.714-20.467 45.714-45.714 45.714zm-188.952-18.286c-21.881 0-39.619-17.738-39.619-39.619s17.738-39.619 39.619-39.619 39.619 17.738 39.619 39.619-17.738 39.619-39.619 39.619zm-210.286-530.286c-25.247 0-45.714-20.467-45.714-45.714s20.467-45.714 45.714-45.714 45.714 20.467 45.714 45.714-20.467 45.714-45.714 45.714zm73.143-167.619c-21.881 0-39.619-17.738-39.619-39.619s17.738-39.619 39.619-39.619 39.619 17.738 39.619 39.619-17.738 39.619-39.619 39.619zm91.429-134.095c-18.515 0-33.524-15.009-33.524-33.524s15.009-33.524 33.524-33.524 33.524 15.009 33.524 33.524-15.009 33.524-33.524 33.524zm429.714 76.19c-25.247 0-45.714-20.467-45.714-45.714s20.467-45.714 45.714-45.714 45.714 20.467 45.714 45.714-20.467 45.714-45.714 45.714zm103.619 140.19c-21.881 0-39.619-17.738-39.619-39.619s17.738-39.619 39.619-39.619 39.619 17.738 39.619 39.619-17.738 39.619-39.619 39.619zm64 137.143c-18.515 0-33.524-15.009-33.524-33.524s15.009-33.524 33.524-33.524 33.524 15.009 33.524 33.524-15.009 33.524-33.524 33.524zm-289.524 396.19c-25.247 0-45.714-20.467-45.714-45.714s20.467-45.714 45.714-45.714 45.714 20.467 45.714 45.714-20.467 45.714-45.714 45.714zm-176.762 15.238c-21.881 0-39.619-17.738-39.619-39.619s17.738-39.619 39.619-39.619 39.619 17.738 39.619 39.619-17.738 39.619-39.619 39.619zm-155.429-24.381c-18.515 0-33.524-15.009-33.524-33.524s15.009-33.524 33.524-33.524 33.524 15.009 33.524 33.524-15.009 33.524-33.524 33.524zm-18.286-493.714c-21.881 0-39.619-17.738-39.619-39.619s17.738-39.619 39.619-39.619 39.619 17.738 39.619 39.619-17.738 39.619-39.619 39.619zm60.952-137.143c-18.515 0-33.524-15.009-33.524-33.524s15.009-33.524 33.524-33.524 33.524 15.009 33.524 33.524-15.009 33.524-33.524 33.524zm76.19-106.667c-16.832 0-30.476-13.645-30.476-30.476 0-16.832 13.645-30.476 30.476-30.476 16.832 0 30.476 13.645 30.476 30.476 0 16.832-13.645 30.476-30.476 30.476zm316.952 198.095c-21.881 0-39.619-17.738-39.619-39.619s17.738-39.619 39.619-39.619 39.619 17.738 39.619 39.619-17.738 39.619-39.619 39.619zm82.286 112.762c-18.515 0-33.524-15.009-33.524-33.524s15.009-33.524 33.524-33.524 33.524 15.009 33.524 33.524-15.009 33.524-33.524 33.524zm51.81 115.81c-16.832 0-30.476-13.645-30.476-30.476 0-16.832 13.645-30.476 30.476-30.476 16.832 0 30.476 13.645 30.476 30.476 0 16.832-13.645 30.476-30.476 30.476zm-341.333 234.667c-21.881 0-39.619-17.738-39.619-39.619s17.738-39.619 39.619-39.619 39.619 17.738 39.619 39.619-17.738 39.619-39.619 39.619zm-143.238 6.095c-18.515 0-33.524-15.009-33.524-33.524s15.009-33.524 33.524-33.524 33.524 15.009 33.524 33.524-15.009 33.524-33.524 33.524zm-128-18.286c-16.832 0-30.476-13.645-30.476-30.476 0-16.832 13.645-30.476 30.476-30.476 16.832 0 30.476 13.645 30.476 30.476 0 16.832-13.645 30.476-30.476 30.476zm134.095-429.714c-18.515 0-33.524-15.009-33.524-33.524s15.009-33.524 33.524-33.524 33.524 15.009 33.524 33.524-15.009 33.524-33.524 33.524zm45.714-112.762c-16.832 0-30.476-13.645-30.476-30.476 0-16.832 13.645-30.476 30.476-30.476 16.832 0 30.476 13.645 30.476 30.476 0 16.832-13.645 30.476-30.476 30.476zm57.905-91.429c-13.465 0-24.381-10.916-24.381-24.381s10.916-24.381 24.381-24.381 24.381 10.916 24.381 24.381-10.916 24.381-24.381 24.381zm201.143 280.381c-18.515 0-33.524-15.009-33.524-33.524s15.009-33.524 33.524-33.524 33.524 15.009 33.524 33.524-15.009 33.524-33.524 33.524zm70.095 91.429c-16.832 0-30.476-13.645-30.476-30.476 0-16.832 13.645-30.476 30.476-30.476 16.832 0 30.476 13.645 30.476 30.476 0 16.832-13.645 30.476-30.476 30.476zm45.714 88.381c-13.465 0-24.381-10.916-24.381-24.381s10.916-24.381 24.381-24.381 24.381 10.916 24.381 24.381-10.916 24.381-24.381 24.381zm-353.524 94.476c-18.515 0-33.524-15.009-33.524-33.524s15.009-33.524 33.524-33.524 33.524 15.009 33.524 33.524-15.009 33.524-33.524 33.524zm-115.81 12.19c-16.832 0-30.476-13.645-30.476-30.476 0-16.832 13.645-30.476 30.476-30.476 16.832 0 30.476 13.645 30.476 30.476 0 16.832-13.645 30.476-30.476 30.476zm-106.667-15.238c-13.465 0-24.381-10.916-24.381-24.381s10.916-24.381 24.381-24.381 24.381 10.916 24.381 24.381-10.916 24.381-24.381 24.381zm249.905-344.381c-16.832 0-30.476-13.645-30.476-30.476 0-16.832 13.645-30.476 30.476-30.476 16.832 0 30.476 13.645 30.476 30.476 0 16.832-13.645 30.476-30.476 30.476zm27.429-100.571c-13.465 0-24.381-10.916-24.381-24.381s10.916-24.381 24.381-24.381 24.381 10.916 24.381 24.381-10.916 24.381-24.381 24.381zm42.667-73.143c-13.465 0-24.381-10.916-24.381-24.381s10.916-24.381 24.381-24.381 24.381 10.916 24.381 24.381-10.916 24.381-24.381 24.381zm88.381 323.048c-16.832 0-30.476-13.645-30.476-30.476 0-16.832 13.645-30.476 30.476-30.476 16.832 0 30.476 13.645 30.476 30.476 0 16.832-13.645 30.476-30.476 30.476zm67.048 64c-13.465 0-24.381-10.916-24.381-24.381s10.916-24.381 24.381-24.381 24.381 10.916 24.381 24.381-10.916 24.381-24.381 24.381zm42.667 76.19c-13.465 0-24.381-10.916-24.381-24.381s10.916-24.381 24.381-24.381 24.381 10.916 24.381 24.381-10.916 24.381-24.381 24.381zm-338.286-30.476c-16.832 0-30.476-13.645-30.476-30.476 0-16.832 13.645-30.476 30.476-30.476 16.832 0 30.476 13.645 30.476 30.476 0 16.832-13.645 30.476-30.476 30.476zm-94.476 15.238c-13.465 0-24.381-10.916-24.381-24.381s10.916-24.381 24.381-24.381 24.381 10.916 24.381 24.381-10.916 24.381-24.381 24.381zm-88.381 0c-13.465 0-24.381-10.916-24.381-24.381s10.916-24.381 24.381-24.381 24.381 10.916 24.381 24.381-10.916 24.381-24.381 24.381zm329.143-259.048c-13.465 0-24.381-10.916-24.381-24.381s10.916-24.381 24.381-24.381 24.381 10.916 24.381 24.381-10.916 24.381-24.381 24.381zm12.19-82.286c-13.465 0-24.381-10.916-24.381-24.381s10.916-24.381 24.381-24.381 24.381 10.916 24.381 24.381-10.916 24.381-24.381 24.381zm24.381-76.19c-10.099 0-18.286-8.187-18.286-18.286 0-10.099 8.187-18.286 18.286-18.286 10.099 0 18.286 8.187 18.286 18.286 0 10.099-8.187 18.286-18.286 18.286zm-12.19 341.333c-13.465 0-24.381-10.916-24.381-24.381s10.916-24.381 24.381-24.381 24.381 10.916 24.381 24.381-10.916 24.381-24.381 24.381zm64 51.81c-13.465 0-24.381-10.916-24.381-24.381s10.916-24.381 24.381-24.381 24.381 10.916 24.381 24.381-10.916 24.381-24.381 24.381zm51.81 51.81c-10.099 0-18.286-8.187-18.286-18.286 0-10.099 8.187-18.286 18.286-18.286 10.099 0 18.286 8.187 18.286 18.286 0 10.099-8.187 18.286-18.286 18.286zm-307.81-124.952c-13.465 0-24.381-10.916-24.381-24.381s10.916-24.381 24.381-24.381 24.381 10.916 24.381 24.381-10.916 24.381-24.381 24.381zm-76.19 30.476c-13.465 0-24.381-10.916-24.381-24.381s10.916-24.381 24.381-24.381 24.381 10.916 24.381 24.381-10.916 24.381-24.381 24.381zm-73.143 9.143c-10.099 0-18.286-8.187-18.286-18.286 0-10.099 8.187-18.286 18.286-18.286 10.099 0 18.286 8.187 18.286 18.286 0 10.099-8.187 18.286-18.286 18.286z" fill="#000" fill-rule="nonzero"/></svg>
